Adwaita/symbolic/actions/selection-mode-symbolic.svg

<?xml version="1.0" encoding="UTF-8"?>
<svg height="16px" viewBox="0 0 16 16" width="16px" xmlns="http://www.w3.org/2000/svg">
    <g fill="#2e3436">
        <path d="m 11.453125 5.414062 c 0.789063 0.050782 1.144531 1.007813 0.585937 1.566407 l -3.988281 4.121093 c -0.359375 0.359376 -0.941406 0.359376 -1.300781 0 l -2.382812 -2.300781 c -0.867188 -0.867187 0.433593 -2.167969 1.300781 -1.300781 l 1.730469 1.652344 l 3.339843 -3.472656 c 0.1875 -0.191407 0.449219 -0.285157 0.714844 -0.265626 z m 0 0"/>
        <path d="m 7.996094 0 c -4.402344 0 -7.996094 3.59375 -7.996094 8 s 3.59375 8 7.996094 8 c 4.40625 0 7.996094 -3.59375 7.996094 -8 s -3.589844 -8 -7.996094 -8 z m 0 2 c 3.324218 0 5.996094 2.675781 5.996094 6 s -2.671876 6 -5.996094 6 c -3.324219 0 -5.996094 -2.675781 -5.996094 -6 s 2.671875 -6 5.996094 -6 z m 0 0"/>
    </g>
</svg>

<?xml version="1.0" encoding="UTF-8"?>
<svg xmlns="http://www.w3.org/2000/svg" xmlns:xlink="http://www.w3.org/1999/xlink" width="16px" height="16px" viewBox="0 0 16 16" version="1.1">
<g id="surface208719">
<path style=" stroke:none;fill-rule:nonzero;fill:rgb(18.039216%,20.392157%,21.176471%);fill-opacity:1;" d="M 11.453125 5.414062 C 12.242188 5.464844 12.597656 6.421875 12.039062 6.980469 L 8.050781 11.101562 C 7.691406 11.460938 7.109375 11.460938 6.75 11.101562 L 4.367188 8.800781 C 3.5 7.933594 4.800781 6.632812 5.667969 7.5 L 7.398438 9.152344 L 10.738281 5.679688 C 10.925781 5.488281 11.1875 5.394531 11.453125 5.414062 Z M 11.453125 5.414062 "/>
<path style=" stroke:none;fill-rule:nonzero;fill:rgb(18.039216%,20.392157%,21.176471%);fill-opacity:1;" d="M 7.996094 0 C 3.59375 0 0 3.59375 0 8 C 0 12.40625 3.59375 16 7.996094 16 C 12.402344 16 15.992188 12.40625 15.992188 8 C 15.992188 3.59375 12.402344 0 7.996094 0 Z M 7.996094 2 C 11.320312 2 13.992188 4.675781 13.992188 8 C 13.992188 11.324219 11.320312 14 7.996094 14 C 4.671875 14 2 11.324219 2 8 C 2 4.675781 4.671875 2 7.996094 2 Z M 7.996094 2 "/>
</g>
</svg>
